X:1
T:G Major Oliver Holden, 1800
T:Isaac Watts, 1709 (Hymn 52, Book 2)  86. 86. (C. M.)
T:Mantua No copyright. Transcribed from Plain Psalmody, 1800.
%%score [ 1 2 3 ]
L:1/8
M:4/4
K:G
V:1 treble nm="Treble" snm="Tr."
V:2 treble-8 nm="Tenor" snm="T."
V:3 bass nm="Bass" snm="B."
V:1
 G4 B2 B2 | d2 B2 G2 A2 | B4 G4 | B2 d2 c2 A2 | G6 A2 | B2 c2 d2 c2 | B2 c2 d2 d2 | e2 d2 c2 B2 | %8
w: ||||||||
 A6 A2 | A2 A2 d2 d2 | B2 B2 G2 G2 | c2 B2 A2 G2 | D6 z2 | z4 z2 G2 | d2 e2 d2 c2 | B2 B2 B4 | %16
w: |||||The|rose of Sha- ron|blos- soms here,|
 z4 z2 G2 | B2 B2 B2 A2 | G2 B2 d2 g2 | f2 e2 d2 ^c2 | d6 B2 | d2 d2 B2 A2 | G2 G2 A2 B>c | %23
w: |||||||
 dg ec B2 A2 | G8 |] %25
w: ||
V:2
 B4 d2 B2 | G2 B2 d2 d2 | d4 B4 | G2 B2 A2 c2 | B6 A2 | G2 A2 B2 A2 | G2 A2 B2 B2 | c2 B2 e2 e2 | %8
w: 1.~A bloo- ming|pa- ra- dise of|joy In|this wild de- sert|spring; And|eve- ry sense finds|strait em- loy On|sweet ce- les- tial|
 d6 d2 | d2 d2 A2 A2 | G2 B2 d2 g2 | f2 g2 d2 G2 | A6 z2 | z8 | z4 z2 G2 | d2 e2 d2 c2 | %16
w: things. White|li- lies all a-|round ap- pear, And|each His glo- ry|shows;||The|rose of Sha- ron|
 B2 B2 B2 B2 | d2 e2 d2 c2 | B2 d2 g2 d2 | ^c2 A2 A2 G2 | A6 G2 | G2 B2 d2 d2 | B2 d2 d2 d2 | %23
w: blos- soms here, The|rose of Sha- ron|blos- soms here, The|fair- est flower that|blows, The|rose of Sha- ron|blos- soms here, The|
 dB ce d2 c2 | B8 |] %25
w: fair- * est * flower that|blows.|
V:3
 G,4 G,2 G,2 | G,2 G,2 D,2 D,2 | G,4 G,4 | G,2 G,2 D,2 D,2 | G,6 D,2 | B,,2 D,2 G,2 D,2 | %6
w: ||||||
 B,,2 D,2 G,2 G,2 | C2 B,2 A,2 G,2 | D,6 D,2 | D,2 D,2 F,2 F,2 | G,2 G,2 G,2 G,2 | %11
w: |||||
 A,2 G,2 F,2 E,2 | D,6 G,2 | D2 E2 D2 C2 | B,2 B,2 B,2 G,,2 | G,,2 G,,2 G,,2 G,,2 | %16
w: |* The|rose of Sha- ron|blos- soms here, *||
 G,,2 G,,2 G,,2 G,2 | G,2 G,2 G,2 D,2 | B,,2 G,,2 G,2 G,2 | A,2 A,2 A,,2 A,,2 | D,6 G,2 | %21
w: |||||
 B,2 G,2 B,,2 D,2 | G,2 B,2 D2 G,2 | B,2 C2 D2 D,2 | G,8 |] %25
w: ||||

